X: 37639
T: Snow On The Hills
R: reel
M: 4/4
K: Gmajor
|:G2dG BGdG|G2dB cAFA|G2dG BG3|defd cAFA|
G2dG BGdG|G2dB cAFA|GABc dfeg|1 fdcA G2(3DEF:|2 fdcA G2Bc||
|:dg3 bg3|dg3 decA|dg2 bgag|fdcA GABc|
dg3 bg3|dg3 defg|a3g f3e|defd cAFA:|

